X:46
T:Glorious Appollo
C:No 46 Wm Clarke MS Feltwell, Norfolk
N:A Glee by Samuel Webb of Harvard
N:Bar 2 : Dot removed
N:Chorus: bars 26, 28 + 30 cr rest substituted for qvr..
N:Bars 27,29 + 31 qvr rest added
I:abc2nwc
M:4/4
L:1/8
K:C
e4c2c2|”^*”d2c2B2z2|c2g2f2e2|e4d2z2|c4d2e2|f3g a2f2|e4d4|c6z2:|
|:e4e2e2|d3e d2B2|c2e2d2c2|B3c d2z2|
e4e2e2|d3e d2B2|c2d2e2^f2|g6z2|e4c2c2|d3c B2z2|
c2g2f2e2|e4d2z2|c4d2e2|f3g a2f2|e4d4|c6z2:|
|:”^Chorus”.d.d|e2z2d2″^*”z2|e2zz2.f.f”^*”z|e2z2d2″^*”z2|
c2zz2.d.d”^*”z|e2z2d2″^*”z2|e2zz2.f.f”^*”z|e4d4|c6|]

